X:16011
T:Pigeon on the Gate, The
R:Reel
C:Trad.
O:Ireland
Z:Paul Hardy's Session Tunebook 2015 (see www.paulhardy.net). Creative Commons cc by-nc-sa licenced.
M:2/2
L:1/8
Q:1/2=65
K:Edor
dc|"Em"BEE2 BEdE|BEE2 dBAF|"D"D2FD ADFD|DEFA BAdc|
"Em"BEE2 BEdE|BEE2 dBAF|"D"D2FA dfec|"Bm"dBAF "Em"E2:|
|:FA|"Em"Beed efed|Bdef gfed|"D"Add2 dedB|ABde fded|
"Em"Beed efed|Bdef g2fg|"D"afge fdec|"Bm"dBAF "Em"E2:|

